X: 493
T: LADY GRACE STEWART
C: NATH. GOW
R: Strathspey
B: Glen Collection p.49 #3
Z: 2011 John Chambers <jc:trillian.mit.edu>
M: C
L: 1/8
V: 1 clef=treble middle=B
V: 2 clef=bass middle=d
%%score {1 | 2}
K: Bm
%
V: 1
|:\
B,BB>c {Bc}dBA2 | B,BB>c dBdf | ef/^g/ af eAc2 | B,BB>c dBdf :|
(d/e/f/g/) af eATc2 | (d/e/f/g/) (ag) fdfa | gb/g/ fa/f/ dATc2 | B,BB>c dBdf |
(d/e/f/g/) af eATc2 | (d/e/f/g/) ag fdfa | (3gbg (3faf (3efd {d}(3cB^A | ~B>c~d>e fBdf |]
%
V: 2
|:\
B2[f2d2] [f2d2][f2d2] | B2[f2d2] F2[f2d2] |\
A2[a2e2] c2[a2e2] | B2[b2f2d2] [b2f2d2][b2f2d2] :|
d2[a2f2] A2[a2e2] | d2[a2f2] [a2f2][a2f2] |\
B2d2 A2[a2e2] | B2[b2f2d2] [b2f2d2][b2f2d2] |
d2[a2f2] A2[a2e2] | d2[a2f2] [a2f2][a2f2] |\
B2d2 A2[g2e2] | [f2d2][e2c2] [d2B2][f2d2B2] |]
